X: 41864
T: Visiting Kittens, The
R: jig
M: 6/8
K: Gmajor
|:DGG BGB|dBA G2E|DGG BGB|d2B cGE|
DGG BGB|dBA G2A|BAB dAF|AGF G3:|
|:Bdd cee|def g3|Bdd cee|dBG B2A|
Bdd cee|def g3|BAB dAF|AGF G3:|

